X:715
T:Banks of Inverness, The
R:polka
Z:transcribed by Dave Marshall
M:2/4
L:1/8
K:G
|: D>E DB, | DE G2 | Bd AB/A/ | GE cE |
D>E DB, | DE GA | Bd AB |1 G2 GE :|2 G2 GA |
|Bd dB | ce e2 | Bd AB | GE E2 |
Bd dB | ce e>f | ge fd | e2- e>f |
ge fd | ed BA | Bd AB | GE EG |
D>E DB, | DE GA | Bd AB | G2 GE |
